!!!!SEGMENT: pl-kk--kk-i-3--007-010_anonim--officium-secundum-ecce-virgo-concipiet.krn
!!!cenid: 15xx:598
!!!COM: Anonim
!!!COM-rismid: pe30004985
!!!CDT:
!!!CNT:
!!!OPR: Officium Secundum
!!!OTL: Ecce virgo concipiet
!!!OMV: 010
!!!PDT:
!!!AGN:
!!!SMS-siglum: PL-Kk
!!!SMS-shelfmark: Kk.I.3
!!!SMS-shelfwork: 007-010 M
!!!SMS-variant:
!!!SMS-altvar:
!!!NIFC-rismid: 1001145493
!!!URL-scan: http://repozytorium.nifc.pl/skany/pl-kk-nut--i-3
!!!ONB-nifc: UWAGA: Discantus (s. 38v-39r, skan 0041), Tenor (s. 28v, skan 0201), Bassus (s. 36v-37r, skan 0340)
!!!key:
**kern	**text	**kern	**text	**kern	**text
*part3	*part3	*part2	*part2	*part1	*part1
*staff3	*staff3	*staff2	*staff2	*staff1	*staff1
*I"[Bassus]	*	*I"[Tenor]	*	*I"[Discantus]	*
*I'[B]	*	*I'[T]	*	*I'[S]	*
*Ibass	*	*Itenor	*	*Isoprn	*
*ICvox	*	*ICvox	*	*ICvox	*
*clefF4	*	*clefF3	*	*clefC3	*
*k[b-]	*	*k[]	*	*k[]	*
*F:	*	*F:	*	*F:	*
*M2/1	*	*M2/1	*	*M2/1	*
*met(C|)	*	*met(C|)	*	*met(C|)	*
=1-	=1-	=1-	=1-	=1-	=1-
*2\right	*2\right	*2\right	*2\right	*2\right	*2\right
!!LO:TX:t=P:problem:brak metrum
1D	Ec-	1D	Ec-	1A	Ec-
*	*	*	*	*lig	*
1E	-ce	1C	-ce	1c	-ce
=2-	=2-	=2-	=2-	=2-	=2-
*	*	*lig	*	*	*
2F\	.	1F	vir-	1A	.
1D	.	.	.	.	.
*	*	*	*	*Xlig	*
.	.	1E	.	2B/	.
2C/	.	.	.	2c/	.
*	*	*Xlig	*	*	*
=3-	=3-	=3-	=3-	=3-	=3-
1D	vir-	1F	-go	1A	vir-
1GG	-go	1D	.	1d	-go
=4-	=4-	=4-	=4-	=4-	=4-
*	*	*	*	*lig	*
1BB-	con-	1D	con-	1d	con-
1AA	.	1E	.	1c	.
*	*	*	*	*Xlig	*
=5-	=5-	=5-	=5-	=5-	=5-
*	*	*	*	*lig	*
1GG	-ci-	1G	-ci-	1B	-ci-
2FF/	-pi-	1A	-pi-	1A	.
1F\	.	.	.	.	.
*	*	*	*	*Xlig	*
=6-	=6-	=6-	=6-	=6-	=6-
*	*	*lig	*	*	*
.	.	1G	.	1c	-pi-
*custos:E	*	*	*	*	*
!LO:LB:g=original	!	!	!	!	!
2E/	.	.	.	.	.
2D/	.	1F	.	2A/	.
2BB-/	.	.	.	2B-X\	.
*	*	*Xlig	*	*	*
=7-	=7-	=7-	=7-	=7-	=7-
*	*	*lig	*	*	*
1D	.	1F	-et	2A/	.
.	.	.	.	1d	.
1AA	-et	1E	.	.	.
.	.	.	.	2c/	.
*	*	*Xlig	*	*custos:d	*
=8-	=8-	=8-	=8-	=8-	=8-
*	*	*lig	*	*	*
!	!	!	!	!LO:PB:g=original	!
1A	.	1F	.	0d	-et
2A\	.	1D	.	.	.
2F/	et	.	.	.	.
*	*	*Xlig	*	*	*
=9-	=9-	=9-	=9-	=9-	=9-
*	*	*	*	*lig	*
1A	pa-	1D	et	1d	et
1G	.	1E	.	1Bny	.
*	*	*	*	*Xlig	*
=10-	=10-	=10-	=10-	=10-	=10-
2C/	.	1G	pa-	2c/	pa-
2E/	.	.	.	2B/	.
1D	.	1A	.	1d	.
*	*	*custos:c	*	*	*
=11-	=11-	=11-	=11-	=11-	=11-
!	!	!LO:LB:g=original	!	!	!
1C	.	1c	.	1e	.
*	*	*lig	*	*	*
1G	.	1e	.	2d/	.
.	.	.	.	2g\	.
=12-	=12-	=12-	=12-	=12-	=12-
2A\	.	1A	.	2e\	.
2D/	-ri-	.	.	2f\	.
*custos:E	*	*	*	*	*
*lig	*	*Xlig	*	*	*
!LO:LB:g=original	!	!	!	!	!
1E	.	1G	-ri-	0e	-ri-
=13-	=13-	=13-	=13-	=13-	=13-
1AA	.	1A	-et	.	.
*Xlig	*	*	*	*	*
!!LO:TX:t=P:problem:oddech/cezura na różnej wysokości
1D	-et	1A,	.	1f	-et
=14-	=14-	=14-	=14-	=14-	=14-
2D/	fi-	1A	fi-	2f\	[[fi]]
2C/	.	.	.	1e	.
*lig	*	*	*	*	*
1F	-li-	1A	-li-	.	.
.	.	.	.	2d/	.
=15-	=15-	=15-	=15-	=15-	=15-
1E	.	1B	.	0e	.
*Xlig	*	*lig	*	*	*
1AA	.	1c	-um	.	.
=16-	=16-	=16-	=16-	=16-	=16-
*	*	*	*	*	*
1D	.	1A	.	1f	.
*	*	*Xlig	*	*custos:f	*
!	!	!	!	!LO:LB:g=original	!
1F	-vm	1A	et	2f\	fi-
.	.	.	.	1d\	-li-
=17-	=17-	=17-	=17-	=17-	=17-
1E	.	1G	vo-	.	.
.	.	.	.	2c/	-um
1D	et	1B	.	1d	.
=18-	=18-	=18-	=18-	=18-	=18-
1C	vo-	1c	.	1e	et
*	*	*lig	*	*	*
1F	-ca-	1A	-ca-	1f	vo-
=19-	=19-	=19-	=19-	=19-	=19-
1G	-bi-	1G	.	1d	.
*	*	*Xlig	*	*	*
*	*	*lig	*	*	*
1C	.	1c	-bi-	2e\	-ca-
.	.	.	.	1g\	-bi-
=20-	=20-	=20-	=20-	=20-	=20-
1D	.	1A	.	.	.
.	.	.	.	2f\	.
*	*	*Xlig	*	*	*
2C/	.	1c	.	2e\	.
1F\	.	.	.	2c/	.
*	*	*	*	*	*
=21-	=21-	=21-	=21-	=21-	=21-
.	.	1G	-tur	2d/	.
*custos:E	*	*	*	*	*
!LO:LB:g=original	!	!	!	!	!
2E/	-tur	.	.	1e	.
*lig	*	*	*	*	*
1F	.	1A	.	.	.
.	.	.	.	2d/	[[tu]]-
=22-	=22-	=22-	=22-	=22-	=22-
1E	.	1B	.	0e	-tur
*Xlig	*	*lig	*	*	*
1AA	.	1c	.	.	.
*	*	*	*	*custos:e	*
=23-	=23-	=23-	=23-	=23-	=23-
*	*	*	*	*lig	*
!	!	!	!	!LO:LB:g=original	!
1AA	.	1A	.	1e	no-
*	*	*custos:F	*	*	*
*	*	*Xlig	*	*	*
!LO:TX:t=P:problem=bemol dwie nuty wcześniej	!	!LO:LB:g=original	!	!	!
1BB-X	.	1F	no-	1d	.
*	*	*	*	*Xlig	*
=24-	=24-	=24-	=24-	=24-	=24-
1AA	no-	1F	-me(n)	2c/	-me(n)
.	.	.	.	1f	e-
1GG	-m(en)	1G	e-	.	.
.	.	.	.	2e\	.
=25-	=25-	=25-	=25-	=25-	=25-
2FF/	e-	1A	.	1f	.
1F	.	.	.	.	.
*	*	*lig	*	*	*
.	.	1B	.	2d/	.
2E/	.	.	.	2e/	.
=26-	=26-	=26-	=26-	=26-	=26-
0F	-ius	1A	.	1c	-ius
*	*	*Xlig	*	*	*
*	*	*lig	*	*	*
.	.	1A	-ius	1f	E-
=27-	=27-	=27-	=27-	=27-	=27-
1C	.	1G	.	2e\	.
.	.	.	.	1c	.
*lig	*	*Xlig	*	*	*
1D	E-	1F	E-	.	.
.	.	.	.	2B/	.
=28-	=28-	=28-	=28-	=28-	=28-
*	*	*lig	*	*	*
1C	.	1G	.	1c	.
*Xlig	*	*	*	*	*
1C	-ma-	1E	.	1e	-ma-
*	*	*Xlig	*	*	*
=29-	=29-	=29-	=29-	=29-	=29-
*	*	*lig	*	*	*
1D	.	1F	.	1d	.
1A	.	1D	.	1f	.
*	*	*Xlig	*	*	*
=30-	=30-	=30-	=30-	=30-	=30-
1A	.	1D	-ma-	1f	.
*custos:D	*	*	*	*	*
!LO:PB:g=original	!	!	!	!	!
2D/	.	1F	.	1d	.
2F/	.	.	.	.	.
*	*	*	*	*custos:e	*
=31-	=31-	=31-	=31-	=31-	=31-
!	!	!	!	!LO:LB:g=original	!
1E	.	1G	.	1e	.
1AA	.	1A	.	1c	.
=32-	=32-	=32-	=32-	=32-	=32-
*	*	*lig	*	*	*
1D	.	1F	-nu-	2A/	.
.	.	.	.	2B/	.
1C	.	1E	.	1c	.
=33-	=33-	=33-	=33-	=33-	=33-
2D/	.	1D	.	2A/	.
2GG/	.	.	.	2B/	.
1AA	.	1C	.	1A	.
*	*	*Xlig	*	*	*
=34-	=34-	=34-	=34-	=34-	=34-
*	*	*lig	*	*	*
2BB-/	.	00D	-el	2F/	-nu-
1GG	-nu-	.	.	1G	.
.	.	.	.	.	.
*	*	*Xlig	*	*	*
2FF/	.	.	.	2A/	.
=35-	=35-	=35-	=35-	=35-	=35-
1GG	.	.	.	1B	.
1D;;	-el	.	.	1A;;	-el
*	*	*custos:F	*	*	*
==	==	==	==	==	==
*-	*-	*-	*-	*-	*-
!!!system-decoration: [(s1,s2,s3)]
!!!RDF**kern: l = terminal long
!!!RDF**kern: > = above
!!!RDF**kern: < = below
!!!AIN: 1 bass 1 soprn 1 tenor
!!!ENC: Katarzyna Serwa
!!!END: 2022-01-05
!!!ENC: Andrzej Gręziak
!!!END: 2021-12-30
